actions/22x22-dark/office-chart-ring.svg

<svg viewBox="0 0 22 22" xmlns="http://www.w3.org/2000/svg"><path d="m10 3.0683594c-3.9556719.4900599-7 3.8391046-7 7.9316406s3.0443281 7.441581 7 7.931641v-1.009766c-3.3993571-.483816-6-3.38466-6-6.921875 0-3.5372148 2.6006429-6.4380585 6-6.921875zm2 0v1.0097656c3.399357.4838165 6 3.3846602 6 6.921875 0 3.537215-2.600643 6.438059-6 6.921875v1.009766c3.955672-.49006 7-3.839105 7-7.931641s-3.044328-7.4415807-7-7.9316406zm-1 1.9316406c-3.324 0-6 2.676-6 6s2.676 6 6 6 6-2.676 6-6c0-.881776-.192482-1.716033-.53125-2.46875l-.78125.78125c.189728.5292746.3125 1.091357.3125 1.6875 0 2.77-2.23 5-5 5s-5-2.23-5-5 2.23-5 5-5c1.641573 0 3.079708.7951359 3.990234 2.0097656l.722657-.7226562c-1.096887-1.3923979-2.79483-2.2871094-4.712891-2.2871094zm0 2c-1.108 0-2.1070781.4469219-2.8300781 1.1699219l.7070312.7070312c.54225-.54225 1.2920469-.8769531 2.1230469-.8769531 1.662 0 3 1.338 3 3s-1.338 3-3 3-3-1.338-3-3c0-.301851.0564772-.586926.1386719-.861328l-.78125-.7812501c-.225587.5015744-.3574219 1.0550841-.3574219 1.6425781 0 2.216 1.784 4 4 4s4-1.784 4-4-1.784-4-4-4z" fill="#f2f2f2"/></svg>

<svg xmlns="http://www.w3.org/2000/svg" viewBox="0 0 22 22">
  <defs id="defs3051">
    <style type="text/css" id="current-color-scheme">
      .ColorScheme-Text {
        color:#f2f2f2;
      }
      .ColorScheme-Highlight {
        color:#3daee9;
      }
      </style>
  </defs>
 <path 
     style="fill:currentColor;fill-opacity:1;stroke:none" 
     d="M 10 3.0683594 C 6.0443281 3.5584193 3 6.907464 3 11 C 3 15.092536 6.0443281 18.441581 10 18.931641 L 10 17.921875 C 6.6006429 17.438059 4 14.537215 4 11 C 4 7.4627852 6.6006429 4.5619415 10 4.078125 L 10 3.0683594 z M 12 3.0683594 L 12 4.078125 C 15.399357 4.5619415 18 7.4627852 18 11 C 18 14.537215 15.399357 17.438059 12 17.921875 L 12 18.931641 C 15.955672 18.441581 19 15.092536 19 11 C 19 6.907464 15.955672 3.5584193 12 3.0683594 z M 11 5 C 7.676 5 5 7.676 5 11 C 5 14.324 7.676 17 11 17 C 14.324 17 17 14.324 17 11 C 17 10.118224 16.807518 9.283967 16.46875 8.53125 L 15.6875 9.3125 C 15.877228 9.8417746 16 10.403857 16 11 C 16 13.77 13.77 16 11 16 C 8.23 16 6 13.77 6 11 C 6 8.23 8.23 6 11 6 C 12.641573 6 14.079708 6.7951359 14.990234 8.0097656 L 15.712891 7.2871094 C 14.616004 5.8947115 12.918061 5 11 5 z M 11 7 C 9.892 7 8.8929219 7.4469219 8.1699219 8.1699219 L 8.8769531 8.8769531 C 9.4192031 8.3347031 10.169 8 11 8 C 12.662 8 14 9.338 14 11 C 14 12.662 12.662 14 11 14 C 9.338 14 8 12.662 8 11 C 8 10.698149 8.0564772 10.413074 8.1386719 10.138672 L 7.3574219 9.3574219 C 7.1318349 9.8589963 7 10.412506 7 11 C 7 13.216 8.784 15 11 15 C 13.216 15 15 13.216 15 11 C 15 8.784 13.216 7 11 7 z "
     class="ColorScheme-Text"
     />
</svg>
